X:198
T:Once I Loved
T:Go and Leave Me
R:song
Z:id:hn-song-198
M:3/4
L:1/8
Q:1/4=120
K:G
D4 D2 | B4 (AG) | E4 G2 | E2 D4 |
G4 B2 | d4 e2 | d4 (dB) | A4
d2 | e4 d2 | B4 (AG) | c4 E2 | E2 D4 |
G4 B2 | d4 (A/B/)c | B4 A2 | G6 ||
D4 D2 | B4 (AG) | E4 G2 | E2 D4 |
G4 B2 | d4 e2 | d4 (dB) | A6 |
e4 d2 | B4 (AG) | c4 E2 | E2 D4 |
G4 B2 | d4 (A/B/c) | B4 A2 | G6 ||
W:Once I loved with fond affection,
W:One whose thoughts were dear to me.
W:Until there came the weary parting,
W:Never more he will speak to me.
W:
W:Chorus:
W:Go and leave me if you wish to,
W:Never let me cross your mind.
W:If you think I've proved unworthy,
W:Go and leave me, I don't mind.
W:
W:Many's the night as you lay sleeping,
W:Dreaming in some sweet repose,
W:While I, a young girl, lay brokenhearted,
W:Listening to the wind that blows.
W:
W:Chorus
W:
W:Here is the ring that first you gave me,
W:When our hearts they were entwined.
W:Give it to the dark haired lady,
W:She'll never know that it once was mine.
W:
W:Chorus

